bernoullicharts/pow_x_1_3__bits.svg

<?xml version="1.0" encoding="utf-8" standalone="no"?>
<!DOCTYPE svg PUBLIC "-//W3C//DTD SVG 1.1//EN"
  "http://www.w3.org/Graphics/SVG/1.1/DTD/svg11.dtd">
<!-- Created with matplotlib (https://matplotlib.org/) -->
<svg height="345.6pt" version="1.1" viewBox="0 0 460.8 345.6" width="460.8pt" xmlns="http://www.w3.org/2000/svg" xmlns:xlink="http://www.w3.org/1999/xlink">
 <defs>
  <style type="text/css">
*{stroke-linecap:butt;stroke-linejoin:round;}
  </style>
 </defs>
 <g id="figure_1">
  <g id="patch_1">
   <path d="M 0 345.6 
L 460.8 345.6 
L 460.8 0 
L 0 0 
z
" style="fill:#ffffff;"/>
  </g>
  <g id="axes_1">
   <g id="patch_2">
    <path d="M 57.6 307.584 
L 414.72 307.584 
L 414.72 41.472 
L 57.6 41.472 
z
" style="fill:#ffffff;"/>
   </g>
   <g id="matplotlib.axis_1">
    <g id="xtick_1">
     <g id="line2d_1">
      <defs>
       <path d="M 0 0 
L 0 3.5 
" id="md2bba7739a" style="stroke:#000000;stroke-width:0.8;"/>
      </defs>
      <g>
       <use style="stroke:#000000;stroke-width:0.8;" x="73.800255" xlink:href="#md2bba7739a" y="307.584"/>
      </g>
     </g>
     <g id="text_1">
      <text style="font-family:DejaVu Sans;font-size:10px;font-style:normal;font-weight:normal;text-anchor:middle;" transform="rotate(-0, 73.800255, 322.182437)" x="73.800255" y="322.182437">0.0</text>
     </g>
    </g>
    <g id="xtick_2">
     <g id="line2d_2">
      <g>
       <use style="stroke:#000000;stroke-width:0.8;" x="138.744153" xlink:href="#md2bba7739a" y="307.584"/>
      </g>
     </g>
     <g id="text_2">
      <text style="font-family:DejaVu Sans;font-size:10px;font-style:normal;font-weight:normal;text-anchor:middle;" transform="rotate(-0, 138.744153, 322.182437)" x="138.744153" y="322.182437">0.2</text>
     </g>
    </g>
    <g id="xtick_3">
     <g id="line2d_3">
      <g>
       <use style="stroke:#000000;stroke-width:0.8;" x="203.688051" xlink:href="#md2bba7739a" y="307.584"/>
      </g>
     </g>
     <g id="text_3">
      <text style="font-family:DejaVu Sans;font-size:10px;font-style:normal;font-weight:normal;text-anchor:middle;" transform="rotate(-0, 203.688051, 322.182437)" x="203.688051" y="322.182437">0.4</text>
     </g>
    </g>
    <g id="xtick_4">
     <g id="line2d_4">
      <g>
       <use style="stroke:#000000;stroke-width:0.8;" x="268.631949" xlink:href="#md2bba7739a" y="307.584"/>
      </g>
     </g>
     <g id="text_4">
      <text style="font-family:DejaVu Sans;font-size:10px;font-style:normal;font-weight:normal;text-anchor:middle;" transform="rotate(-0, 268.631949, 322.182437)" x="268.631949" y="322.182437">0.6</text>
     </g>
    </g>
    <g id="xtick_5">
     <g id="line2d_5">
      <g>
       <use style="stroke:#000000;stroke-width:0.8;" x="333.575847" xlink:href="#md2bba7739a" y="307.584"/>
      </g>
     </g>
     <g id="text_5">
      <text style="font-family:DejaVu Sans;font-size:10px;font-style:normal;font-weight:normal;text-anchor:middle;" transform="rotate(-0, 333.575847, 322.182437)" x="333.575847" y="322.182437">0.8</text>
     </g>
    </g>
    <g id="xtick_6">
     <g id="line2d_6">
      <g>
       <use style="stroke:#000000;stroke-width:0.8;" x="398.519745" xlink:href="#md2bba7739a" y="307.584"/>
      </g>
     </g>
     <g id="text_6">
      <text style="font-family:DejaVu Sans;font-size:10px;font-style:normal;font-weight:normal;text-anchor:middle;" transform="rotate(-0, 398.519745, 322.182437)" x="398.519745" y="322.182437">1.0</text>
     </g>
    </g>
    <g id="text_7">
     <text style="font-family:DejaVu Sans;font-size:10px;font-style:normal;font-weight:normal;text-anchor:middle;" transform="rotate(-0, 236.16, 335.860562)" x="236.16" y="335.860562">Probability</text>
    </g>
   </g>
   <g id="matplotlib.axis_2">
    <g id="ytick_1">
     <g id="line2d_7">
      <defs>
       <path d="M 0 0 
L -3.5 0 
" id="m6a353e94b4" style="stroke:#000000;stroke-width:0.8;"/>
      </defs>
      <g>
       <use style="stroke:#000000;stroke-width:0.8;" x="57.6" xlink:href="#m6a353e94b4" y="295.714893"/>
      </g>
     </g>
     <g id="text_8">
      <text style="font-family:DejaVu Sans;font-size:10px;font-style:normal;font-weight:normal;text-anchor:end;" transform="rotate(-0, 50.6, 299.514112)" x="50.6" y="299.514112">0</text>
     </g>
    </g>
    <g id="ytick_2">
     <g id="line2d_8">
      <g>
       <use style="stroke:#000000;stroke-width:0.8;" x="57.6" xlink:href="#m6a353e94b4" y="237.774813"/>
      </g>
     </g>
     <g id="text_9">
      <text style="font-family:DejaVu Sans;font-size:10px;font-style:normal;font-weight:normal;text-anchor:end;" transform="rotate(-0, 50.6, 241.574031)" x="50.6" y="241.574031">500</text>
     </g>
    </g>
    <g id="ytick_3">
     <g id="line2d_9">
      <g>
       <use style="stroke:#000000;stroke-width:0.8;" x="57.6" xlink:href="#m6a353e94b4" y="179.834732"/>
      </g>
     </g>
     <g id="text_10">
      <text style="font-family:DejaVu Sans;font-size:10px;font-style:normal;font-weight:normal;text-anchor:end;" transform="rotate(-0, 50.6, 183.633951)" x="50.6" y="183.633951">1000</text>
     </g>
    </g>
    <g id="ytick_4">
     <g id="line2d_10">
      <g>
       <use style="stroke:#000000;stroke-width:0.8;" x="57.6" xlink:href="#m6a353e94b4" y="121.894651"/>
      </g>
     </g>
     <g id="text_11">
      <text style="font-family:DejaVu Sans;font-size:10px;font-style:normal;font-weight:normal;text-anchor:end;" transform="rotate(-0, 50.6, 125.69387)" x="50.6" y="125.69387">1500</text>
     </g>
    </g>
    <g id="ytick_5">
     <g id="line2d_11">
      <g>
       <use style="stroke:#000000;stroke-width:0.8;" x="57.6" xlink:href="#m6a353e94b4" y="63.954571"/>
      </g>
     </g>
     <g id="text_12">
      <text style="font-family:DejaVu Sans;font-size:10px;font-style:normal;font-weight:normal;text-anchor:end;" transform="rotate(-0, 50.6, 67.753789)" x="50.6" y="67.753789">2000</text>
     </g>
    </g>
    <g id="text_13">
     <text style="font-family:DejaVu Sans;font-size:10px;font-style:normal;font-weight:normal;text-anchor:middle;" transform="rotate(-90, 19.070312, 174.528)" x="19.070312" y="174.528">Average Bits Consumed Per Call</text>
    </g>
   </g>
   <g id="line2d_12">
    <path clip-path="url(#p376f44cb2e)" d="M 73.832727 53.568 
L 77.112066 286.758516 
L 80.391405 290.057392 
L 83.670744 290.716055 
L 86.950083 291.614358 
L 90.229421 292.179158 
L 93.50876 293.031109 
L 96.788099 293.071435 
L 100.067438 293.426492 
L 103.346777 293.483737 
L 106.626116 293.789892 
L 109.905455 293.680269 
L 113.184793 293.875412 
L 116.464132 294.039498 
L 119.743471 293.994768 
L 123.02281 294.177627 
L 126.302149 294.29513 
L 129.581488 294.348898 
L 132.860826 294.441834 
L 136.140165 294.489808 
L 139.419504 294.477757 
L 142.698843 294.560263 
L 145.978182 294.627706 
L 149.257521 294.623302 
L 152.53686 294.599663 
L 155.816198 294.785071 
L 159.095537 294.805698 
L 162.374876 294.846951 
L 165.654215 294.837449 
L 168.933554 294.798513 
L 172.212893 294.760041 
L 175.492231 294.905586 
L 178.77157 294.878007 
L 182.050909 294.9232 
L 185.330248 294.870127 
L 188.609587 294.938265 
L 191.888926 294.991801 
L 195.168264 294.961441 
L 198.447603 295.043715 
L 201.726942 295.058316 
L 205.006281 295.047424 
L 208.28562 295.090531 
L 211.564959 295.083578 
L 214.844298 295.091922 
L 218.123636 295.113939 
L 221.402975 295.101192 
L 224.682314 295.161218 
L 227.961653 295.134566 
L 231.240992 295.176514 
L 234.520331 295.177905 
L 237.799669 295.17466 
L 241.079008 295.180918 
L 244.358347 295.220549 
L 247.637686 295.217767 
L 250.917025 295.16678 
L 254.196364 295.233064 
L 257.475702 295.214291 
L 260.755041 295.23654 
L 264.03438 295.237004 
L 267.313719 295.253459 
L 270.593058 295.284978 
L 273.872397 295.265974 
L 277.151736 295.314643 
L 280.431074 295.28266 
L 283.710413 295.29448 
L 286.989752 295.306068 
L 290.269091 295.291235 
L 293.54843 295.33921 
L 296.827769 295.336429 
L 300.107107 295.326463 
L 303.386446 295.333648 
L 306.665785 295.36424 
L 309.945124 295.368412 
L 313.224463 295.356128 
L 316.503802 295.379768 
L 319.78314 295.389734 
L 323.062479 295.384171 
L 326.341818 295.376523 
L 329.621157 295.405725 
L 332.900496 295.386257 
L 336.179835 295.393905 
L 339.459174 295.391356 
L 342.738512 295.413141 
L 346.017851 295.396223 
L 349.29719 295.425656 
L 352.576529 295.437013 
L 355.855868 295.431914 
L 359.135207 295.410824 
L 362.414545 295.434695 
L 365.693884 295.471777 
L 368.973223 295.439794 
L 372.252562 295.443966 
L 375.531901 295.43539 
L 378.81124 295.451845 
L 382.090579 295.461348 
L 385.369917 295.463202 
L 388.649256 295.477339 
L 391.928595 295.47224 
L 395.207934 295.488 
L 398.487273 295.469691 
" style="fill:none;stroke:#1f77b4;stroke-linecap:square;stroke-width:1.5;"/>
   </g>
   <g id="patch_3">
    <path d="M 57.6 307.584 
L 57.6 41.472 
" style="fill:none;stroke:#000000;stroke-linecap:square;stroke-linejoin:miter;stroke-width:0.8;"/>
   </g>
   <g id="patch_4">
    <path d="M 414.72 307.584 
L 414.72 41.472 
" style="fill:none;stroke:#000000;stroke-linecap:square;stroke-linejoin:miter;stroke-width:0.8;"/>
   </g>
   <g id="patch_5">
    <path d="M 57.6 307.584 
L 414.72 307.584 
" style="fill:none;stroke:#000000;stroke-linecap:square;stroke-linejoin:miter;stroke-width:0.8;"/>
   </g>
   <g id="patch_6">
    <path d="M 57.6 41.472 
L 414.72 41.472 
" style="fill:none;stroke:#000000;stroke-linecap:square;stroke-linejoin:miter;stroke-width:0.8;"/>
   </g>
   <g id="text_14">
    <text style="font-family:DejaVu Sans;font-size:12px;font-style:normal;font-weight:normal;text-anchor:middle;" transform="rotate(-0, 236.16, 35.472)" x="236.16" y="35.472">Avg. Bits Consumed by pow(x,1/3) Algorithm</text>
   </g>
   <g id="legend_1">
    <g id="patch_7">
     <path d="M 322.080938 64.150125 
L 407.72 64.150125 
Q 409.72 64.150125 409.72 62.150125 
L 409.72 48.472 
Q 409.72 46.472 407.72 46.472 
L 322.080938 46.472 
Q 320.080938 46.472 320.080938 48.472 
L 320.080938 62.150125 
Q 320.080938 64.150125 322.080938 64.150125 
z
" style="fill:#ffffff;opacity:0.8;stroke:#cccccc;stroke-linejoin:miter;"/>
    </g>
    <g id="line2d_13">
     <path d="M 324.080938 54.570438 
L 344.080938 54.570438 
" style="fill:none;stroke:#1f77b4;stroke-linecap:square;stroke-width:1.5;"/>
    </g>
    <g id="line2d_14"/>
    <g id="text_15">
     <text style="font-family:DejaVu Sans;font-size:10px;font-style:normal;font-weight:normal;text-anchor:start;" transform="rotate(-0, 352.080938, 58.070438)" x="352.080938" y="58.070438">pow(x,1/3)</text>
    </g>
   </g>
  </g>
 </g>
 <defs>
  <clipPath id="p376f44cb2e">
   <rect height="266.112" width="357.12" x="57.6" y="41.472"/>
  </clipPath>
 </defs>
</svg>

<svg height="460.8" viewBox="0 0 460.8 345.6" width="614.4" xmlns="http://www.w3.org/2000/svg" xmlns:xlink="http://www.w3.org/1999/xlink"><defs><style>*{stroke-linecap:butt;stroke-linejoin:round}</style></defs><g id="figure_1"><path d="M0 345.6h460.8V0H0z" fill="#fff" id="patch_1"/><g id="axes_1"><path d="M57.6 307.584h357.12V41.472H57.6z" fill="#fff" id="patch_2"/><g id="matplotlib.axis_1"><g id="xtick_1"><g id="line2d_1"><defs><path d="M0 0v3.5" id="md2bba7739a" stroke="#000" stroke-width=".8"/></defs><use x="73.8" xlink:href="#md2bba7739a" y="307.584" stroke="#000" stroke-width=".8"/></g><text x="73.8" y="322.182" font-family="DejaVu Sans" font-size="10" font-weight="400" text-anchor="middle" id="text_1">0.0</text></g><g id="xtick_2"><use x="138.744" xlink:href="#md2bba7739a" y="307.584" stroke="#000" stroke-width=".8" id="line2d_2"/><text x="138.744" y="322.182" font-family="DejaVu Sans" font-size="10" font-weight="400" text-anchor="middle" id="text_2">0.2</text></g><g id="xtick_3"><use x="203.688" xlink:href="#md2bba7739a" y="307.584" stroke="#000" stroke-width=".8" id="line2d_3"/><text x="203.688" y="322.182" font-family="DejaVu Sans" font-size="10" font-weight="400" text-anchor="middle" id="text_3">0.4</text></g><g id="xtick_4"><use x="268.632" xlink:href="#md2bba7739a" y="307.584" stroke="#000" stroke-width=".8" id="line2d_4"/><text x="268.632" y="322.182" font-family="DejaVu Sans" font-size="10" font-weight="400" text-anchor="middle" id="text_4">0.6</text></g><g id="xtick_5"><use x="333.576" xlink:href="#md2bba7739a" y="307.584" stroke="#000" stroke-width=".8" id="line2d_5"/><text x="333.576" y="322.182" font-family="DejaVu Sans" font-size="10" font-weight="400" text-anchor="middle" id="text_5">0.8</text></g><g id="xtick_6"><use x="398.52" xlink:href="#md2bba7739a" y="307.584" stroke="#000" stroke-width=".8" id="line2d_6"/><text x="398.52" y="322.182" font-family="DejaVu Sans" font-size="10" font-weight="400" text-anchor="middle" id="text_6">1.0</text></g><text x="236.16" y="335.861" font-family="DejaVu Sans" font-size="10" font-weight="400" text-anchor="middle" id="text_7">Probability</text></g><g id="matplotlib.axis_2"><g id="ytick_1"><g id="line2d_7"><defs><path d="M0 0h-3.5" id="m6a353e94b4" stroke="#000" stroke-width=".8"/></defs><use x="57.6" xlink:href="#m6a353e94b4" y="295.715" stroke="#000" stroke-width=".8"/></g><text x="50.6" y="299.514" font-family="DejaVu Sans" font-size="10" font-weight="400" text-anchor="end" id="text_8">0</text></g><g id="ytick_2"><use x="57.6" xlink:href="#m6a353e94b4" y="237.775" stroke="#000" stroke-width=".8" id="line2d_8"/><text x="50.6" y="241.574" font-family="DejaVu Sans" font-size="10" font-weight="400" text-anchor="end" id="text_9">500</text></g><g id="ytick_3"><use x="57.6" xlink:href="#m6a353e94b4" y="179.835" stroke="#000" stroke-width=".8" id="line2d_9"/><text x="50.6" y="183.634" font-family="DejaVu Sans" font-size="10" font-weight="400" text-anchor="end" id="text_10">1000</text></g><g id="ytick_4"><use x="57.6" xlink:href="#m6a353e94b4" y="121.895" stroke="#000" stroke-width=".8" id="line2d_10"/><text x="50.6" y="125.694" font-family="DejaVu Sans" font-size="10" font-weight="400" text-anchor="end" id="text_11">1500</text></g><g id="ytick_5"><use x="57.6" xlink:href="#m6a353e94b4" y="63.955" stroke="#000" stroke-width=".8" id="line2d_11"/><text x="50.6" y="67.754" font-family="DejaVu Sans" font-size="10" font-weight="400" text-anchor="end" id="text_12">2000</text></g><text transform="rotate(-90 19.07 174.528)" x="19.07" y="174.528" font-family="DejaVu Sans" font-size="10" font-weight="400" text-anchor="middle" id="text_13">Average Bits Consumed Per Call</text></g><path clip-path="url(#p376f44cb2e)" d="M73.833 53.568l3.28 233.19 3.278 3.3 3.28.658 3.28.898 3.278.565 3.28.852 3.28.04 3.278.355 3.28.058 3.28.306 3.278-.11 3.28.195 3.28.164 3.278-.044 3.28.183 3.28.117 3.278.054 3.28.093 3.28.048 3.279-.012 3.279.082 3.28.068 3.279-.005 3.279-.023 3.28.185 3.279.02 3.279.042 3.28-.01 3.279-.038 3.279-.039 3.28.146 3.279-.028 3.279.045 3.28-.053 3.279.068 3.279.054 3.28-.03 3.279.082 3.279.014 3.28-.01 3.279.043 3.279-.007 3.28.008 3.279.022 3.279-.013 3.28.06 3.279-.026 3.279.042h3.28l3.279-.002 3.279.006 3.28.04 3.279-.003 3.279-.051 3.28.066 3.279-.019 3.279.023h3.28l3.279.016 3.28.032 3.278-.019 3.28.049 3.28-.032 3.278.011 3.28.012 3.28-.015 3.278.048 3.28-.003 3.28-.01 3.278.008 3.28.03 3.28.004 3.278-.012 3.28.024 3.28.01 3.278-.006 3.28-.007 3.28.029 3.278-.02 3.28.008 3.28-.003 3.279.022 3.279-.017 3.28.03 3.279.011 3.279-.005 3.28-.021 3.279.024 3.279.037 3.28-.032 3.279.004 3.279-.009 3.28.017 3.279.01 3.279.001 3.28.014 3.279-.005 3.279.016 3.28-.018" fill="none" stroke="#1f77b4" stroke-linecap="square" stroke-width="1.5" id="line2d_12"/><path d="M57.6 307.584V41.472" fill="none" stroke="#000" stroke-linecap="square" stroke-width=".8" id="patch_3"/><path d="M414.72 307.584V41.472" fill="none" stroke="#000" stroke-linecap="square" stroke-width=".8" id="patch_4"/><path d="M57.6 307.584h357.12" fill="none" stroke="#000" stroke-linecap="square" stroke-width=".8" id="patch_5"/><path d="M57.6 41.472h357.12" fill="none" stroke="#000" stroke-linecap="square" stroke-width=".8" id="patch_6"/><text x="236.16" y="35.472" font-family="DejaVu Sans" font-size="12" font-weight="400" text-anchor="middle" id="text_14">Avg. Bits Consumed by pow(x,1/3) Algorithm</text><g id="legend_1"><path d="M322.08 64.15h85.64q2 0 2-2V48.472q0-2-2-2h-85.64q-2 0-2 2V62.15q0 2 2 2z" fill="#fff" opacity=".8" stroke="#ccc" id="patch_7"/><path d="M324.08 54.57h20" fill="none" stroke="#1f77b4" stroke-linecap="square" stroke-width="1.5" id="line2d_13"/><text x="352.081" y="58.07" font-family="DejaVu Sans" font-size="10" font-weight="400" id="text_15">pow(x,1/3)</text></g></g></g><defs><clipPath id="p376f44cb2e"><path d="M57.6 41.472h357.12v266.112H57.6z"/></clipPath></defs></svg>
